public/images/icon-github.svg

<svg width="40" height="40" viewBox="0 0 40 40" fill="none" xmlns="http://www.w3.org/2000/svg">
<g id="icon/github">
<path id="vector" fill-rule="evenodd" clip-rule="evenodd" d="M19.8293 3.6532C10.8455 3.6532 3.56909 10.9296 3.56909 19.9134C3.56909 27.1085 8.22356 33.1857 14.687 35.3402C15.5 35.4825 15.8049 34.9947 15.8049 34.5678C15.8049 34.1817 15.7845 32.9012 15.7845 31.5394C11.6992 32.2914 10.6423 30.5434 10.3171 29.6288C10.1341 29.1613 9.34145 27.7182 8.65039 27.3321C8.08129 27.0272 7.26828 26.2751 8.63007 26.2548C9.91056 26.2345 10.8252 27.4337 11.1301 27.9215C12.5935 30.3808 14.9309 29.6898 15.8658 29.263C16.0081 28.206 16.4349 27.4947 16.9024 27.0882C13.2845 26.6817 9.50405 25.2792 9.50405 19.0597C9.50405 17.2914 10.1341 15.828 11.1707 14.6898C11.0081 14.2833 10.439 12.6166 11.3333 10.3808C11.3333 10.3808 12.6951 9.95401 15.8049 12.0475C17.1057 11.6817 18.4878 11.4987 19.8699 11.4987C21.252 11.4987 22.6341 11.6817 23.9349 12.0475C27.0447 9.93369 28.4065 10.3808 28.4065 10.3808C29.3008 12.6166 28.7317 14.2833 28.5691 14.6898C29.6057 15.828 30.2358 17.2711 30.2358 19.0597C30.2358 25.2995 26.4349 26.6817 22.8171 27.0882C23.4065 27.5963 23.9146 28.5719 23.9146 30.0963C23.9146 32.2711 23.8943 34.0191 23.8943 34.5678C23.8943 34.9947 24.1992 35.5028 25.0122 35.3402C28.2401 34.2505 31.0451 32.1759 33.0322 29.4085C35.0193 26.6411 36.0885 23.3203 36.0894 19.9134C36.0894 10.9296 28.813 3.6532 19.8293 3.6532Z" fill="black"/>
</g>
</svg>

<svg xmlns="http://www.w3.org/2000/svg" width="40" height="40" fill="none"><path fill="#000" fill-rule="evenodd" d="M19.83 3.653c-8.984 0-16.26 7.277-16.26 16.26 0 7.195 4.654 13.273 11.117 15.427.813.142 1.118-.345 1.118-.772 0-.386-.02-1.667-.02-3.029-4.086.752-5.143-.996-5.468-1.91-.183-.468-.976-1.91-1.667-2.297-.569-.305-1.382-1.057-.02-1.077 1.28-.02 2.195 1.179 2.5 1.667 1.463 2.459 3.8 1.768 4.736 1.341.142-1.057.569-1.768 1.036-2.175-3.618-.406-7.398-1.809-7.398-8.028 0-1.769.63-3.232 1.667-4.37-.163-.407-.732-2.073.162-4.31 0 0 1.362-.426 4.472 1.667a15.09 15.09 0 0 1 4.065-.548c1.382 0 2.764.183 4.065.548 3.11-2.113 4.472-1.666 4.472-1.666.894 2.236.325 3.902.162 4.309 1.037 1.138 1.667 2.581 1.667 4.37 0 6.24-3.801 7.622-7.419 8.028.59.508 1.098 1.484 1.098 3.008 0 2.175-.02 3.923-.02 4.472 0 .427.304.935 1.117.772A16.287 16.287 0 0 0 36.09 19.913c0-8.983-7.276-16.26-16.26-16.26Z" clip-rule="evenodd"/></svg>
